;FLAVOR:UltiGCode
;TIME:17339
;MATERIAL:15893
;MATERIAL2:0
;NOZZLE_DIAMETER:0.4
;Generated with Cura_SteamEngine 2.5.0

;LAYER_COUNT:173
;LAYER:0
M107
G0 F4320 X64.669 Y76.922 Z0.27
;TYPE:SKIRT
G1 F1800 X65.101 Y76.663 E0.0476
G1 X65.569 Y76.476 E0.09522
G1 X66.06 Y76.366 E0.14277
G1 X66.509 Y76.334 E0.18531
G1 X156.491 Y76.335 E8.68861
G1 X156.993 Y76.375 E8.7362
G1 X157.482 Y76.494 E8.78376
G1 X157.947 Y76.688 E8.83137
G1 X158.375 Y76.954 E8.87899
G1 X158.755 Y77.284 E8.92656
G1 X159.079 Y77.67 E8.97418
G1 X159.337 Y78.102 E9.02173
G1 X159.524 Y78.57 E9.06936
G1 X159.634 Y79.061 E9.1169
G1 X159.666 Y79.51 E9.15944
G1 X159.666 Y143.491 E15.20565
G1 X159.626 Y143.993 E15.25324
G1 X159.507 Y144.482 E15.3008
G1 X159.313 Y144.947 E15.34841
G1 X159.047 Y145.375 E15.39603
G1 X158.717 Y145.755 E15.44359
G1 X158.331 Y146.078 E15.49115
G1 X157.899 Y146.337 E15.53875
G1 X157.431 Y146.524 E15.58638
G1 X156.94 Y146.634 E15.63393
G1 X156.491 Y146.666 E15.67647
G1 X66.509 Y146.666 E24.17977
G1 X66.007 Y146.626 E24.22736
G1 X65.518 Y146.507 E24.27491
G1 X65.053 Y146.313 E24.32253
G1 X64.625 Y146.047 E24.37015
G1 X64.245 Y145.717 E24.41771
G1 X63.922 Y145.331 E24.46527
G1 X63.663 Y144.899 E24.51287
G1 X63.476 Y144.431 E24.5605
G1 X63.366 Y143.94 E24.60805
G1 X63.334 Y143.491 E24.65059
G1 X63.334 Y79.509 E30.69688
G1 X63.374 Y79.007 E30.74447
G1 X63.493 Y78.518 E30.79203
G1 X63.687 Y78.053 E30.83965
G1 X63.953 Y77.625 E30.88727
G1 X64.283 Y77.245 E30.93483
G1 X64.669 Y76.922 E30.98239
G10
G0 F4320 X67.039 Y78.804
G0 X67.039 Y80.039
G0 X67.375 Y80.375
;TYPE:WALL-INNER
G11
G1 F1800 X155.625 Y80.375 E39.32202
G1 X155.625 Y142.625 E45.20464
G1 X67.375 Y142.625 E53.54427
G1 X67.375 Y80.375 E59.42689
G0 F4320 X90.625 Y84.188
G1 F1800 X90.625 Y89.5 E59.92887
G1 X111.375 Y89.5 E61.88975
G1 X111.375 Y84.188 E62.39173
G1 X90.625 Y84.188 E64.35261
G0 F4320 X90.625 Y91.313
G1 F1800 X90.625 Y96.625 E64.85459
G1 X111.375 Y96.625 E66.81547
G1 X111.375 Y91.313 E67.31745
G1 X90.625 Y91.313 E69.27833
G0 F4320 X90.625 Y98.438
G1 F1800 X90.625 Y103.75 E69.78031
G1 X111.375 Y103.75 E71.74119
G1 X111.375 Y98.438 E72.24317
G1 X90.625 Y98.438 E74.20404
G0 F4320 X90.625 Y111.125
G1 F1800 X90.625 Y139.875 E76.92092
G1 X111.375 Y139.875 E78.88179
G1 X111.375 Y111.125 E81.59867
G1 X90.625 Y111.125 E83.55954
G0 F4320 X90.975 Y111.475
G1 F1800 X90.975 Y139.525 E86.21027
G1 X111.025 Y139.525 E88.10499
G1 X111.025 Y111.475 E90.75572
G1 X90.975 Y111.475 E92.65044
G0 F4320 X90.905 Y111.405
G0 X90.905 Y103.47
G0 X90.975 Y103.4
G1 F1800 X111.025 Y103.4 E94.54517
G1 X111.025 Y98.788 E94.981
G1 X90.975 Y98.788 E96.87573
G1 X90.975 Y103.4 E97.31156
G0 F4320 X90.905 Y103.47
G0 X90.905 Y96.345
G0 X90.975 Y96.275
G1 F1800 X111.025 Y96.275 E99.20629
G1 X111.025 Y91.663 E99.64212
G1 X90.975 Y91.663 E101.53685
G1 X90.975 Y96.275 E101.97268
G0 F4320 X90.905 Y96.345
G0 X90.905 Y89.22
G0 X90.975 Y89.15
G1 F1800 X111.025 Y89.15 E103.86741
G1 X111.025 Y84.538 E104.30324
G1 X90.975 Y84.538 E106.19796
G1 X90.975 Y89.15 E106.6338
G0 F4320 X90.905 Y89.22
G0 X67.095 Y80.095
G0 X67.025 Y80.025
G1 F1800 X155.975 Y80.025 E115.03957
G1 X155.975 Y142.975 E120.98835
G1 X67.025 Y142.975 E129.39412
G1 X67.025 Y80.025 E135.3429
G0 F4320 X66.7 Y79.7
;TYPE:WALL-OUTER
G1 F1800 X156.3 Y79.7 E143.8101
G1 X156.3 Y143.3 E149.8203
G1 X66.7 Y143.3 E158.2875
G1 X66.7 Y79.7 E164.2977
G0 F4320 X66.9 Y79.7
G0 X67.095 Y80.095
G0 X91.3 Y84.438
G0 X91.3 Y84.863
G1 F1800 X91.3 Y88.825 E164.67211
G1 X110.7 Y88.825 E166.50541
G1 X110.7 Y84.863 E166.87982
G1 X91.3 Y84.863 E168.71312
G0 F4320 X91.3 Y85.063
G0 X90.875 Y85.063
G0 X90.947 Y89.178
G0 X91.3 Y91.563
G0 X91.3 Y91.988
G1 F1800 X91.3 Y95.95 E169.08753
G1 X110.7 Y95.95 E170.92083
G1 X110.7 Y91.988 E171.29523
G1 X91.3 Y91.988 E173.12853
G0 F4320 X91.3 Y92.188
G0 X90.875 Y92.188
G0 X90.947 Y96.303
G0 X91.3 Y98.688
G0 X91.3 Y99.113
G1 F1800 X91.3 Y103.075 E173.50294
G1 X110.7 Y103.075 E175.33624
G1 X110.7 Y99.113 E175.71065
G1 X91.3 Y99.113 E177.54395
G0 F4320 X91.3 Y99.313
G0 X90.875 Y99.313
G0 X90.947 Y103.428
G0 X91.3 Y111.375
G0 X91.3 Y111.8
G1 F1800 X91.3 Y139.2 E180.13325
G1 X110.7 Y139.2 E181.96655
G1 X110.7 Y111.8 E184.55585
G1 X91.3 Y111.8 E186.38915
G0 F4320 X91.3 Y112
G0 X90.875 Y112
G0 X90.467 Y112.246
;TYPE:SKIN
G1 F1800 X67.532 Y89.311 E189.45426
G1 X67.471 Y89.25
G0 F4320 X67.532 Y88.816
G1 F1800 X90.467 Y111.751 E192.51937
G1 X90.528 Y111.812
G0 F4320 X90.467 Y111.256
G1 F1800 X67.532 Y88.321 E195.58447
G1 X67.471 Y88.26
G0 F4320 X67.532 Y87.826
G1 F1800 X90.672 Y110.966 E198.67698
G1 X90.733 Y111.027
G0 F4320 X91.167 Y110.966
G1 F1800 X67.532 Y87.331 E201.83563
G1 X67.471 Y87.27
G0 F4320 X67.532 Y86.836
G1 F1800 X91.662 Y110.966 E205.06044
G1 X91.723 Y111.027
G0 F4320 X92.157 Y110.966
G1 F1800 X67.532 Y86.341 E208.35141
G1 X67.471 Y86.28
G0 F4320 X67.532 Y85.847
G1 F1800 X92.652 Y110.966 E211.70846
G1 X92.713 Y111.027
G0 F4320 X93.147 Y110.966
G1 F1800 X67.532 Y85.352 E215.13166
G1 X67.471 Y85.291
G0 F4320 X67.532 Y84.857
G1 F1800 X93.642 Y110.966 E218.62101
G1 X93.703 Y111.027
G0 F4320 X94.137 Y110.966
G1 F1800 X67.532 Y84.362 E222.17652
G1 X67.471 Y84.301
G0 F4320 X67.532 Y83.867
G1 F1800 X94.632 Y110.966 E225.79819
G1 X94.693 Y111.027
G0 F4320 X95.127 Y110.966
G1 F1800 X67.532 Y83.372 E229.48601
G1 X67.471 Y83.311
G0 F4320 X67.532 Y82.877
G1 F1800 X95.622 Y110.966 E233.23998
G1 X95.683 Y111.027
G0 F4320 X96.117 Y110.966
G1 F1800 X67.532 Y82.382 E237.0601
G1 X67.471 Y82.321
G0 F4320 X67.532 Y81.887
G1 F1800 X96.611 Y110.966 E240.94631
G1 X96.672 Y111.027
G0 F4320 X97.106 Y110.966
G1 F1800 X67.532 Y81.392 E244.89867
G1 X67.471 Y81.331
G0 F4320 X67.532 Y80.897
G1 F1800 X90.467 Y103.831 E247.96371
G1 X90.528 Y103.892
G0 F4320 X90.543 Y103.907
G1 F1800 X97.601 Y110.966 E248.90703
G1 X97.662 Y111.027
G0 F4320 X98.096 Y110.966
G1 F1800 X91.038 Y103.907 E249.85035
G1 X90.977 Y103.846
G0 F4320 X91.533 Y103.907
G1 F1800 X98.591 Y110.966 E250.79367
G1 X98.652 Y111.027
G0 F4320 X99.086 Y110.966
G1 F1800 X92.028 Y103.907 E251.73699
G1 X91.967 Y103.846
G0 F4320 X92.523 Y103.907
G1 F1800 X99.581 Y110.966 E252.68031
G1 X99.642 Y111.027
G0 F4320 X100.076 Y110.966
G1 F1800 X93.018 Y103.907 E253.62363
G1 X92.957 Y103.846
G0 F4320 X93.513 Y103.907
G1 F1800 X100.571 Y110.966 E254.56695
G1 X100.632 Y111.027
G0 F4320 X101.066 Y110.966
G1 F1800 X94.008 Y103.907 E255.51028
G1 X93.947 Y103.846
G0 F4320 X94.503 Y103.907
G1 F1800 X101.561 Y110.966 E256.4536
G1 X101.622 Y111.027
G0 F4320 X102.056 Y110.966
G1 F1800 X94.998 Y103.907 E257.39692
G1 X94.937 Y103.846
G0 F4320 X95.493 Y103.907
G1 F1800 X102.551 Y110.966 E258.34024
G1 X102.612 Y111.027
G0 F4320 X103.046 Y110.966
G1 F1800 X95.988 Y103.907 E259.28356
G1 X95.927 Y103.846
G0 F4320 X96.483 Y103.907
G1 F1800 X103.541 Y110.966 E260.22688
G1 X103.602 Y111.027
G0 F4320 X104.036 Y110.966
G1 F1800 X96.978 Y103.907 E261.1702
G1 X96.917 Y103.846
G0 F4320 X97.473 Y103.907
G1 F1800 X104.531 Y110.966 E262.11352
G1 X104.592 Y111.027
G0 F4320 X105.026 Y110.966
G1 F1800 X97.968 Y103.907 E263.05684
G1 X97.907 Y103.846
G0 F4320 X98.463 Y103.907
G1 F1800 X105.521 Y110.966 E264.00016
G1 X105.582 Y111.027
G0 F4320 X106.016 Y110.966
G1 F1800 X98.958 Y103.907 E264.94348
G1 X98.897 Y103.846
G0 F4320 X99.453 Y103.907
G1 F1800 X106.511 Y110.966 E265.8868
G1 X106.572 Y111.027
G0 F4320 X107.006 Y110.966
G1 F1800 X99.948 Y103.907 E266.83012
G1 X99.887 Y103.846
G0 F4320 X100.443 Y103.907
G1 F1800 X107.501 Y110.966 E267.77344
G1 X107.562 Y111.027
G0 F4320 X107.996 Y110.966
G1 F1800 X100.938 Y103.907 E268.71676
G1 X100.877 Y103.846
G0 F4320 X101.433 Y103.907
G1 F1800 X108.491 Y110.966 E269.66008
G1 X108.552 Y111.027
G0 F4320 X108.986 Y110.966
G1 F1800 X101.928 Y103.907 E270.6034
G1 X101.867 Y103.846
G0 F4320 X102.423 Y103.907
G1 F1800 X109.481 Y110.966 E271.54672
G1 X109.542 Y111.027
G0 F4320 X109.976 Y110.966
G1 F1800 X102.917 Y103.907 E272.49011
G1 X102.856 Y103.846
G0 F4320 X103.412 Y103.907
G1 F1800 X110.471 Y110.966 E273.4335
G1 X110.532 Y111.027
G0 F4320 X110.966 Y110.966
G1 F1800 X103.907 Y103.907 E274.37688
G1 X103.846 Y103.846
G0 F4320 X104.402 Y103.907
G1 F1800 X111.461 Y110.966 E275.32027
G1 X111.522 Y111.027
G0 F4320 X111.532 Y111.037
G1 F1800 X142.961 Y142.466 E279.52054
G1 X143.022 Y142.527
G0 F4320 X143.456 Y142.466
G1 F1800 X104.897 Y103.907 E284.67369
G1 X104.836 Y103.846
G0 F4320 X105.392 Y103.907
G1 F1800 X143.951 Y142.466 E289.82684
G1 X144.012 Y142.527
G0 F4320 X144.446 Y142.466
G1 F1800 X105.887 Y103.907 E294.97998
G1 X105.826 Y103.846
G0 F4320 X106.382 Y103.907
G1 F1800 X144.941 Y142.466 E300.13313
G1 X145.002 Y142.527
G0 F4320 X145.436 Y142.466
G1 F1800 X106.877 Y103.907 E305.28628
G1 X106.816 Y103.846
G0 F4320 X107.372 Y103.907
G1 F1800 X145.931 Y142.466 E310.43943
G1 X145.992 Y142.527
G0 F4320 X146.426 Y142.466
G1 F1800 X107.867 Y103.907 E315.59257
G1 X107.806 Y103.846
G0 F4320 X108.362 Y103.907
G1 F1800 X146.921 Y142.466 E320.74572
G1 X146.982 Y142.527
G0 F4320 X147.416 Y142.466
G1 F1800 X108.857 Y103.907 E325.89887
G1 X108.796 Y103.846
G0 F4320 X109.352 Y103.907
G1 F1800 X147.911 Y142.466 E331.05202
G1 X147.972 Y142.527
G0 F4320 X148.406 Y142.466
G1 F1800 X109.847 Y103.907 E336.20516
G1 X109.786 Y103.846
G0 F4320 X110.342 Y103.907
G1 F1800 X148.901 Y142.466 E341.35831
G1 X148.962 Y142.527
G0 F4320 X149.396 Y142.466
G1 F1800 X110.837 Y103.907 E346.51146
G1 X110.776 Y103.846
G0 F4320 X111.332 Y103.907
G1 F1800 X149.891 Y142.466 E351.66461
G1 X149.952 Y142.527
G0 F4320 X150.386 Y142.466
G1 F1800 X111.531 Y103.612 E356.85725
G1 X111.47 Y103.551
G0 F4320 X111.531 Y103.117
G1 F1800 X150.881 Y142.466 E362.11604
G1 X150.942 Y142.527
G0 F4320 X151.376 Y142.466
G1 F1800 X111.531 Y102.622 E367.44098
G1 X111.47 Y102.561
G0 F4320 X111.531 Y102.127
G1 F1800 X151.87 Y142.466 E372.83202
G1 X151.931 Y142.527
G0 F4320 X152.365 Y142.466
G1 F1800 X111.531 Y101.632 E378.2892
G1 X111.47 Y101.571
G0 F4320 X111.531 Y101.137
G1 F1800 X152.86 Y142.466 E383.81254
G1 X152.921 Y142.527
G0 F4320 X153.355 Y142.466
G1 F1800 X111.531 Y100.642 E389.40203
G1 X111.47 Y100.581
G0 F4320 X111.531 Y100.147
G1 F1800 X153.85 Y142.466 E395.05768
G1 X153.911 Y142.527
G0 F4320 X154.345 Y142.466
G1 F1800 X111.531 Y99.652 E400.77948
G1 X111.47 Y99.591
G0 F4320 X111.531 Y99.157
G1 F1800 X154.84 Y142.466 E406.56743
G1 X154.901 Y142.527
G0 F4320 X155.335 Y142.466
G1 F1800 X111.531 Y98.662 E412.42154
G1 X111.47 Y98.601
G0 F4320 X111.148 Y98.279
G1 F1800 X109.652 Y96.783 E412.62147
G1 X109.591 Y96.722
G0 F4320 X109.157 Y96.783
G1 F1800 X110.653 Y98.279 E412.8214
G1 X110.714 Y98.34
G0 F4320 X110.158 Y98.279
G1 F1800 X108.662 Y96.783 E413.02133
G1 X108.601 Y96.722
G0 F4320 X108.167 Y96.783
G1 F1800 X109.663 Y98.279 E413.22126
G1 X109.724 Y98.34
G0 F4320 X109.168 Y98.279
G1 F1800 X107.672 Y96.783 E413.42119
G1 X107.611 Y96.722
G0 F4320 X107.177 Y96.783
G1 F1800 X108.673 Y98.279 E413.62112
G1 X108.734 Y98.34
G0 F4320 X108.178 Y98.279
G1 F1800 X106.682 Y96.783 E413.82105
G1 X106.621 Y96.722
G0 F4320 X106.187 Y96.783
G1 F1800 X107.683 Y98.279 E414.02098
G1 X107.744 Y98.34
G0 F4320 X107.188 Y98.279
G1 F1800 X105.692 Y96.783 E414.22091
G1 X105.631 Y96.722
G0 F4320 X105.197 Y96.783
G1 F1800 X106.693 Y98.279 E414.42084
G1 X106.754 Y98.34
G0 F4320 X106.198 Y98.279
G1 F1800 X104.702 Y96.783 E414.62077
G1 X104.641 Y96.722
G0 F4320 X104.207 Y96.783
G1 F1800 X105.703 Y98.279 E414.8207
G1 X105.764 Y98.34
G0 F4320 X105.209 Y98.279
G1 F1800 X103.712 Y96.783 E415.0207
G1 X103.651 Y96.722
G0 F4320 X103.217 Y96.783
G1 F1800 X104.714 Y98.279 E415.22069
G1 X104.775 Y98.34
G0 F4320 X104.219 Y98.279
G1 F1800 X102.722 Y96.783 E415.42069
G1 X102.661 Y96.722
G0 F4320 X102.227 Y96.783
G1 F1800 X103.724 Y98.279 E415.62069
G1 X103.785 Y98.34
G0 F4320 X103.229 Y98.279
G1 F1800 X101.732 Y96.783 E415.82068
G1 X101.671 Y96.722
G0 F4320 X101.237 Y96.783
G1 F1800 X102.734 Y98.279 E416.02068
G1 X102.795 Y98.34
G0 F4320 X102.239 Y98.279
G1 F1800 X100.742 Y96.783 E416.22068
G1 X100.681 Y96.722
G0 F4320 X100.247 Y96.783
G1 F1800 X101.744 Y98.279 E416.42068
G1 X101.805 Y98.34
G0 F4320 X101.249 Y98.279
G1 F1800 X99.752 Y96.783 E416.62067
G1 X99.691 Y96.722
G0 F4320 X99.257 Y96.783
G1 F1800 X100.754 Y98.279 E416.82067
G1 X100.815 Y98.34
G0 F4320 X100.259 Y98.279
G1 F1800 X98.763 Y96.783 E417.0206
G1 X98.702 Y96.722
G0 F4320 X98.268 Y96.783
G1 F1800 X99.764 Y98.279 E417.22053
G1 X99.825 Y98.34
G0 F4320 X99.269 Y98.279
G1 F1800 X97.773 Y96.783 E417.42046
G1 X97.712 Y96.722
G0 F4320 X97.278 Y96.783
G1 F1800 X98.774 Y98.279 E417.62039
G1 X98.835 Y98.34
G0 F4320 X98.279 Y98.279
G1 F1800 X96.783 Y96.783 E417.82032
G1 X96.722 Y96.722
G0 F4320 X96.288 Y96.783
G1 F1800 X97.784 Y98.279 E418.02025
G1 X97.845 Y98.34
G0 F4320 X97.289 Y98.279
G1 F1800 X95.793 Y96.783 E418.22018
G1 X95.732 Y96.722
G0 F4320 X95.298 Y96.783
G1 F1800 X96.794 Y98.279 E418.42011
G1 X96.855 Y98.34
G0 F4320 X96.299 Y98.279
G1 F1800 X94.803 Y96.783 E418.62004
G1 X94.742 Y96.722
G0 F4320 X94.308 Y96.783
G1 F1800 X95.804 Y98.279 E418.81997
G1 X95.865 Y98.34
G0 F4320 X95.309 Y98.279
G1 F1800 X93.813 Y96.783 E419.0199
G1 X93.752 Y96.722
G0 F4320 X93.318 Y96.783
G1 F1800 X94.814 Y98.279 E419.21983
G1 X94.875 Y98.34
G0 F4320 X94.319 Y98.279
G1 F1800 X92.823 Y96.783 E419.41976
G1 X92.762 Y96.722
G0 F4320 X92.328 Y96.783
G1 F1800 X93.824 Y98.279 E419.61969
G1 X93.885 Y98.34
G0 F4320 X93.329 Y98.279
G1 F1800 X91.833 Y96.783 E419.81962
G1 X91.772 Y96.722
G0 F4320 X91.338 Y96.783
G1 F1800 X92.834 Y98.279 E420.01955
G1 X92.895 Y98.34
G0 F4320 X92.339 Y98.279
G1 F1800 X90.843 Y96.783 E420.21948
G1 X90.782 Y96.722
G0 F4320 X90.467 Y96.406
G1 F1800 X74.593 Y80.533 E422.34087
G1 X74.532 Y80.472
G0 F4320 X74.098 Y80.533
G1 F1800 X91.844 Y98.279 E424.7125
G1 X91.905 Y98.34
G0 F4320 X91.349 Y98.279
G1 F1800 X73.603 Y80.533 E427.08413
G1 X73.542 Y80.472
G0 F4320 X73.108 Y80.533
G1 F1800 X90.854 Y98.279 E429.45576
G1 X90.915 Y98.34
G0 F4320 X90.467 Y98.386
G1 F1800 X72.613 Y80.533 E431.84176
G1 X72.552 Y80.472
G0 F4320 X72.118 Y80.533
G1 F1800 X90.467 Y98.881 E434.29391
G1 X90.528 Y98.942
G0 F4320 X90.467 Y99.376
G1 F1800 X71.623 Y80.533 E436.81222
G1 X71.562 Y80.472
G0 F4320 X71.128 Y80.533
G1 F1800 X90.467 Y99.871 E439.39668
G1 X90.528 Y99.932
G0 F4320 X90.467 Y100.366
G1 F1800 X70.633 Y80.533 E442.04729
G1 X70.572 Y80.472
G0 F4320 X70.138 Y80.533
G1 F1800 X90.467 Y100.861 E444.76406
G1 X90.528 Y100.922
G0 F4320 X90.467 Y101.356
G1 F1800 X69.643 Y80.533 E447.54697
G1 X69.582 Y80.472
G0 F4320 X69.148 Y80.533
G1 F1800 X90.467 Y101.851 E450.39605
G1 X90.528 Y101.912
G0 F4320 X90.467 Y102.346
G1 F1800 X68.653 Y80.533 E453.31127
G1 X68.592 Y80.472
G0 F4320 X68.158 Y80.533
G1 F1800 X90.467 Y102.841 E456.29265
G1 X90.528 Y102.902
G0 F4320 X90.467 Y103.336
G1 F1800 X67.663 Y80.533 E459.34018
G1 X67.602 Y80.472
G0 F4320 X67.532 Y89.806
G1 F1800 X90.467 Y112.741 E462.40529
G1 X90.528 Y112.802
G0 F4320 X90.467 Y113.236
G1 F1800 X67.532 Y90.301 E465.4704
G1 X67.471 Y90.24
G0 F4320 X67.532 Y90.796
G1 F1800 X90.467 Y113.731 E468.5355
G1 X90.528 Y113.792
G0 F4320 X90.467 Y114.226
G1 F1800 X67.532 Y91.291 E471.60061
G1 X67.471 Y91.23
G0 F4320 X67.532 Y91.786
G1 F1800 X90.467 Y114.721 E474.66571
G1 X90.528 Y114.782
G0 F4320 X90.467 Y115.215
G1 F1800 X67.532 Y92.281 E477.73075
G1 X67.471 Y92.22
G0 F4320 X67.532 Y92.776
G1 F1800 X90.467 Y115.71 E480.79579
G1 X90.528 Y115.771
G0 F4320 X90.467 Y116.205
G1 F1800 X67.532 Y93.271 E483.86083
G1 X67.471 Y93.21
G0 F4320 X67.532 Y93.766
G1 F1800 X90.467 Y116.7 E486.92587
G1 X90.528 Y116.761
G0 F4320 X90.467 Y117.195
G1 F1800 X67.532 Y94.261 E489.99091
G1 X67.471 Y94.2
G0 F4320 X67.532 Y94.756
G1 F1800 X90.467 Y117.69 E493.05595
G1 X90.528 Y117.751
G0 F4320 X90.467 Y118.185
G1 F1800 X67.532 Y95.251 E496.12099
G1 X67.471 Y95.19
G0 F4320 X67.532 Y95.746
G1 F1800 X90.467 Y118.68 E499.18603
G1 X90.528 Y118.741
G0 F4320 X90.467 Y119.175
G1 F1800 X67.532 Y96.241 E502.25107
G1 X67.471 Y96.18
G0 F4320 X67.532 Y96.736
G1 F1800 X90.467 Y119.67 E505.31611
G1 X90.528 Y119.731
G0 F4320 X90.467 Y120.165
