;FLAVOR:UltiGCode
;TIME:18269
;MATERIAL:16064
;MATERIAL2:0
;NOZZLE_DIAMETER:0.4
;Generated with Cura_SteamEngine 2.5.0

;LAYER_COUNT:118
;LAYER:0
M107
G0 F4320 X64.669 Y76.922 Z0.27
;TYPE:SKIRT
G1 F1800 X65.101 Y76.663 E0.0476
G1 X65.569 Y76.476 E0.09522
G1 X66.06 Y76.366 E0.14277
G1 X66.509 Y76.334 E0.18531
G1 X156.491 Y76.335 E8.68861
G1 X156.993 Y76.375 E8.7362
G1 X157.482 Y76.494 E8.78376
G1 X157.947 Y76.688 E8.83137
G1 X158.375 Y76.954 E8.87899
G1 X158.755 Y77.284 E8.92656
G1 X159.079 Y77.67 E8.97418
G1 X159.337 Y78.102 E9.02173
G1 X159.524 Y78.57 E9.06936
G1 X159.634 Y79.061 E9.1169
G1 X159.666 Y79.51 E9.15944
G1 X159.666 Y143.491 E15.20565
G1 X159.626 Y143.993 E15.25324
G1 X159.507 Y144.482 E15.3008
G1 X159.313 Y144.947 E15.34841
G1 X159.047 Y145.375 E15.39603
G1 X158.717 Y145.755 E15.44359
G1 X158.331 Y146.078 E15.49115
G1 X157.899 Y146.337 E15.53875
G1 X157.431 Y146.524 E15.58638
G1 X156.94 Y146.634 E15.63393
G1 X156.491 Y146.666 E15.67647
G1 X66.509 Y146.666 E24.17977
G1 X66.007 Y146.626 E24.22736
G1 X65.518 Y146.507 E24.27491
G1 X65.053 Y146.313 E24.32253
G1 X64.625 Y146.047 E24.37015
G1 X64.245 Y145.717 E24.41771
G1 X63.922 Y145.331 E24.46527
G1 X63.663 Y144.899 E24.51287
G1 X63.476 Y144.431 E24.5605
G1 X63.366 Y143.94 E24.60805
G1 X63.334 Y143.491 E24.65059
G1 X63.334 Y79.509 E30.69688
G1 X63.374 Y79.007 E30.74447
G1 X63.493 Y78.518 E30.79203
G1 X63.687 Y78.053 E30.83965
G1 X63.953 Y77.625 E30.88727
G1 X64.283 Y77.245 E30.93483
G1 X64.669 Y76.922 E30.98239
G10
G0 F4320 X67.039 Y78.804
G0 X67.039 Y80.039
G0 X67.375 Y80.375
;TYPE:WALL-INNER
G11
G1 F1800 X155.625 Y80.375 E39.32202
G1 X155.625 Y142.625 E45.20464
G1 X67.375 Y142.625 E53.54427
G1 X67.375 Y80.375 E59.42689
G0 F4320 X69.668 Y82.671
G1 F1800 X69.37 Y83.059 E59.47312
G1 X69.183 Y83.513 E59.51952
G1 X69.117 Y84 E59.56597
G1 X69.183 Y84.49 E59.61269
G1 X69.37 Y84.939 E59.65865
G1 X69.666 Y85.33 E59.705
G1 X70.059 Y85.632 E59.75183
G1 X70.515 Y85.819 E59.79841
G1 X71 Y85.883 E59.84464
G1 X71.487 Y85.819 E59.89105
G1 X71.939 Y85.632 E59.93728
G1 X72.333 Y85.333 E59.98402
G1 X72.632 Y84.939 E60.03076
G1 X72.819 Y84.487 E60.07699
G1 X72.883 Y84 E60.1234
G1 X72.819 Y83.515 E60.16963
G1 X72.632 Y83.058 E60.21629
G1 X72.33 Y82.668 E60.26291
G1 X71.939 Y82.369 E60.30942
G1 X71.488 Y82.183 E60.35552
G1 X71 Y82.117 E60.40206
G1 X70.514 Y82.183 E60.44841
G1 X70.059 Y82.369 E60.49486
G1 X69.668 Y82.671 E60.54155
G0 F4320 X69.43 Y84
G0 X71 Y137.117
G1 F1800 X70.515 Y137.181 E60.58778
G1 X70.059 Y137.368 E60.63435
G1 X69.666 Y137.67 E60.68119
G1 X69.37 Y138.061 E60.72753
G1 X69.183 Y138.51 E60.7735
G1 X69.117 Y139 E60.82022
G1 X69.183 Y139.487 E60.86666
G1 X69.37 Y139.941 E60.91306
G1 X69.668 Y140.329 E60.95929
G1 X70.059 Y140.631 E61.00598
G1 X70.514 Y140.817 E61.05243
G1 X71 Y140.883 E61.09878
G1 X71.488 Y140.817 E61.14532
G1 X71.939 Y140.631 E61.19142
G1 X72.33 Y140.332 E61.23793
G1 X72.632 Y139.942 E61.28455
G1 X72.819 Y139.485 E61.33121
G1 X72.883 Y139 E61.37744
G1 X72.819 Y138.513 E61.42386
G1 X72.632 Y138.061 E61.47008
G1 X72.333 Y137.667 E61.51682
G1 X71.939 Y137.368 E61.56356
G1 X71.487 Y137.181 E61.60979
G1 X71 Y137.117 E61.6562
G0 F4320 X133.732 Y127.375
G1 F1800 X134.069 Y128.192 E61.73972
G1 X134.607 Y128.892 E61.82315
G1 X135.309 Y129.43 E61.90673
G1 X136.125 Y129.767 E61.99016
G1 X137 Y129.883 E62.07357
G1 X137.875 Y129.767 E62.15698
G1 X138.692 Y129.43 E62.2405
G1 X139.392 Y128.892 E62.32393
G1 X139.93 Y128.192 E62.40736
G1 X140.267 Y127.375 E62.49088
G1 X140.383 Y126.5 E62.57429
G1 X140.267 Y125.624 E62.65779
G1 X139.93 Y124.809 E62.74114
G1 X139.392 Y124.107 E62.82472
G1 X138.692 Y123.569 E62.90815
G1 X137.875 Y123.232 E62.99166
G1 X137 Y123.117 E63.07506
G1 X136.125 Y123.232 E63.15846
G1 X135.309 Y123.569 E63.24189
G1 X134.607 Y124.107 E63.32547
G1 X134.069 Y124.809 E63.40905
G1 X133.732 Y125.624 E63.49239
G1 X133.617 Y126.5 E63.57588
G1 X133.732 Y127.375 E63.65928
G0 F4320 X134.829 Y128.67
G0 X135.466 Y129.158
G0 X150.369 Y138.061
G1 F1800 X150.181 Y138.512 E63.70546
G1 X150.117 Y139 E63.75197
G1 X150.181 Y139.486 E63.79829
G1 X150.369 Y139.94 E63.84473
G1 X150.667 Y140.332 E63.89126
G1 X151.062 Y140.631 E63.93808
G1 X151.512 Y140.817 E63.98409
G1 X152 Y140.883 E64.03063
G1 X152.486 Y140.817 E64.07697
G1 X152.94 Y140.631 E64.12334
G1 X153.332 Y140.331 E64.16999
G1 X153.621 Y139.951 E64.2151
G1 X153.81 Y139.507 E64.2607
G1 X153.88 Y139.02 E64.3072
G1 X153.814 Y138.498 E64.35692
G1 X153.619 Y138.041 E64.40387
G1 X153.315 Y137.653 E64.45045
G1 X152.919 Y137.359 E64.49706
G1 X152.466 Y137.179 E64.54312
G1 X151.981 Y137.118 E64.58932
G1 X151.493 Y137.188 E64.63591
G1 X151.047 Y137.378 E64.68172
G1 X150.667 Y137.668 E64.72689
G1 X150.369 Y138.061 E64.7735
G0 F4320 X137.875 Y99.768
G1 F1800 X138.692 Y99.431 E64.85702
G1 X139.392 Y98.893 E64.94045
G1 X139.93 Y98.191 E65.02403
G1 X140.267 Y97.376 E65.10737
G1 X140.383 Y96.5 E65.19087
G1 X140.267 Y95.625 E65.27428
G1 X139.93 Y94.808 E65.3578
G1 X139.392 Y94.108 E65.44123
G1 X138.692 Y93.57 E65.52466
G1 X137.875 Y93.233 E65.60818
G1 X137 Y93.117 E65.69159
G1 X136.125 Y93.233 E65.775
G1 X135.309 Y93.57 E65.85843
G1 X134.607 Y94.108 E65.94201
G1 X134.069 Y94.808 E66.02544
G1 X133.732 Y95.625 E66.10896
G1 X133.617 Y96.5 E66.19236
G1 X133.732 Y97.376 E66.27585
G1 X134.069 Y98.191 E66.35919
G1 X134.607 Y98.893 E66.44277
G1 X135.309 Y99.431 E66.52635
G1 X136.125 Y99.768 E66.60978
G1 X137 Y99.883 E66.69318
G1 X137.875 Y99.768 E66.77658
G0 F4320 X139.17 Y98.671
G0 X150.667 Y85.331
G1 F1800 X151.061 Y85.632 E66.82343
G1 X151.513 Y85.819 E66.86966
G1 X152 Y85.883 E66.91607
G1 X152.485 Y85.819 E66.9623
G1 X152.942 Y85.632 E67.00897
G1 X153.332 Y85.33 E67.05558
G1 X153.621 Y84.953 E67.10047
G1 X153.81 Y84.508 E67.14616
G1 X153.88 Y84.025 E67.19228
G1 X153.824 Y83.538 E67.2386
G1 X153.638 Y83.075 E67.28575
G1 X153.32 Y82.658 E67.33531
G1 X152.92 Y82.36 E67.38245
G1 X152.466 Y82.179 E67.42864
G1 X151.979 Y82.119 E67.47501
G1 X151.498 Y82.189 E67.52094
G1 X151.06 Y82.369 E67.56569
G1 X150.667 Y82.668 E67.61235
G1 X150.369 Y83.06 E67.65889
G1 X150.181 Y83.514 E67.70532
G1 X150.117 Y84 E67.75165
G1 X150.181 Y84.488 E67.79816
G1 X150.369 Y84.939 E67.84433
G1 X150.667 Y85.331 E67.89086
G0 F4320 X150.917 Y85.082
G1 F1800 X151.237 Y85.326 E67.92889
G1 X151.604 Y85.478 E67.96643
G1 X152 Y85.53 E68.00417
G1 X152.394 Y85.478 E68.04173
G1 X152.765 Y85.326 E68.07962
G1 X153.082 Y85.081 E68.11748
G1 X153.316 Y84.775 E68.15388
G1 X153.47 Y84.413 E68.19106
G1 X153.527 Y84.02 E68.22858
G1 X153.482 Y83.625 E68.26615
G1 X153.331 Y83.25 E68.30436
G1 X153.071 Y82.909 E68.34488
G1 X152.748 Y82.668 E68.38296
G1 X152.378 Y82.521 E68.42059
G1 X151.983 Y82.472 E68.4582
G1 X151.591 Y82.529 E68.49563
G1 X151.236 Y82.675 E68.53191
G1 X150.917 Y82.918 E68.5698
G1 X150.675 Y83.236 E68.60757
G1 X150.522 Y83.605 E68.64531
G1 X150.47 Y84 E68.68296
G1 X150.522 Y84.396 E68.72071
G1 X150.675 Y84.763 E68.75828
G1 X150.917 Y85.082 E68.79612
G0 F4320 X150.847 Y85.152
G0 X150.484 Y84.406
G0 X150.43 Y84
G0 X150.484 Y83.595
G0 X150.641 Y83.217
G0 X150.889 Y82.89
G0 X151.217 Y82.641
G0 X155.905 Y80.095
G0 X155.975 Y80.025
G1 F1800 X155.975 Y142.975 E74.7449
G1 X67.025 Y142.975 E83.15067
G1 X67.025 Y80.025 E89.09945
G1 X155.975 Y80.025 E97.50522
G0 F4320 X155.905 Y80.095
G0 X151.217 Y82.641
G0 X150.889 Y82.89
G0 X139.212 Y94.288
G0 X139.142 Y94.358
G1 F1800 X138.515 Y93.876 E97.57996
G1 X137.784 Y93.574 E97.6547
G1 X137 Y93.47 E97.72944
G1 X136.216 Y93.574 E97.80417
G1 X135.485 Y93.876 E97.87892
G1 X134.857 Y94.358 E97.95373
G1 X134.375 Y94.985 E98.02846
G1 X134.073 Y95.716 E98.1032
G1 X133.97 Y96.5 E98.17793
G1 X134.073 Y97.285 E98.25275
G1 X134.375 Y98.015 E98.3274
G1 X134.857 Y98.643 E98.40221
G1 X135.485 Y99.125 E98.47702
G1 X136.216 Y99.427 E98.55177
G1 X137 Y99.53 E98.62649
G1 X137.784 Y99.427 E98.70122
G1 X138.515 Y99.125 E98.77596
G1 X139.142 Y98.643 E98.85069
G1 X139.624 Y98.015 E98.92551
G1 X139.926 Y97.285 E99.00016
G1 X140.03 Y96.5 E99.07499
G1 X139.926 Y95.716 E99.14973
G1 X139.624 Y94.985 E99.22447
G1 X139.142 Y94.358 E99.29921
G0 F4320 X139.212 Y94.288
G0 X139.658 Y94.966
G0 X139.964 Y95.706
G0 X140.07 Y96.5
G0 X137 Y123.37
G0 X137 Y123.47
G1 F1800 X136.216 Y123.573 E99.37393
G1 X135.485 Y123.875 E99.44867
G1 X134.857 Y124.357 E99.52349
G1 X134.375 Y124.985 E99.5983
G1 X134.073 Y125.715 E99.67295
G1 X133.97 Y126.5 E99.74777
G1 X134.073 Y127.284 E99.82249
G1 X134.375 Y128.015 E99.89724
G1 X134.857 Y128.642 E99.97197
G1 X135.485 Y129.124 E100.04678
G1 X136.216 Y129.426 E100.12153
G1 X137 Y129.53 E100.19626
G1 X137.784 Y129.426 E100.271
G1 X138.515 Y129.124 E100.34574
G1 X139.142 Y128.642 E100.42048
G1 X139.624 Y128.015 E100.49521
G1 X139.926 Y127.284 E100.56996
G1 X140.03 Y126.5 E100.64469
G1 X139.926 Y125.715 E100.71952
G1 X139.624 Y124.985 E100.79418
G1 X139.142 Y124.357 E100.86899
G1 X138.515 Y123.875 E100.94373
G1 X137.784 Y123.573 E101.01847
G1 X137 Y123.47 E101.09319
G0 F4320 X137 Y123.37
G0 X137.794 Y123.535
G0 X138.534 Y123.841
G0 X139.17 Y124.329
G0 X150.847 Y137.847
G0 X150.917 Y137.917
G1 F1800 X150.675 Y138.237 E101.13111
G1 X150.522 Y138.604 E101.16868
G1 X150.47 Y139 E101.20643
G1 X150.522 Y139.395 E101.24407
G1 X150.675 Y139.764 E101.28182
G1 X150.917 Y140.082 E101.31959
G1 X151.237 Y140.325 E101.35756
G1 X151.604 Y140.476 E101.39506
G1 X152 Y140.53 E101.43283
G1 X152.395 Y140.476 E101.4705
G1 X152.764 Y140.325 E101.50818
G1 X153.082 Y140.082 E101.546
G1 X153.316 Y139.774 E101.58255
G1 X153.47 Y139.412 E101.61973
G1 X153.527 Y139.017 E101.65744
G1 X153.473 Y138.591 E101.69802
G1 X153.315 Y138.221 E101.73604
G1 X153.068 Y137.906 E101.77387
G1 X152.747 Y137.667 E101.81169
G1 X152.378 Y137.521 E101.84919
G1 X151.984 Y137.471 E101.88672
G1 X151.588 Y137.528 E101.92453
G1 X151.224 Y137.683 E101.96192
G1 X150.917 Y137.917 E101.99839
G0 F4320 X150.847 Y137.847
G0 X72.63 Y139
G0 X72.53 Y139
G1 F1800 X72.478 Y138.604 E102.03614
G1 X72.326 Y138.237 E102.07368
G1 X72.083 Y137.917 E102.11165
G1 X71.763 Y137.674 E102.14962
G1 X71.396 Y137.522 E102.18716
G1 X71 Y137.47 E102.2249
G1 X70.606 Y137.522 E102.26246
G1 X70.235 Y137.674 E102.30034
G1 X69.917 Y137.919 E102.33828
G1 X69.676 Y138.237 E102.37598
G1 X69.524 Y138.602 E102.41335
G1 X69.47 Y139 E102.4513
G1 X69.524 Y139.395 E102.48898
G1 X69.676 Y139.765 E102.52678
G1 X69.918 Y140.08 E102.56432
G1 X70.235 Y140.325 E102.60218
G1 X70.605 Y140.476 E102.63994
G1 X71 Y140.53 E102.67762
G1 X71.396 Y140.476 E102.71539
G1 X71.763 Y140.325 E102.75289
G1 X72.081 Y140.082 E102.79071
G1 X72.326 Y139.765 E102.82857
G1 X72.478 Y139.394 E102.86646
G1 X72.53 Y139 E102.90401
G0 F4320 X72.63 Y139
G0 X71 Y85.63
G0 X71 Y85.53
G1 F1800 X71.396 Y85.478 E102.94176
G1 X71.763 Y85.326 E102.97929
G1 X72.083 Y85.083 E103.01727
G1 X72.326 Y84.763 E103.05524
G1 X72.478 Y84.396 E103.09277
G1 X72.53 Y84 E103.13052
G1 X72.478 Y83.606 E103.16807
G1 X72.326 Y83.235 E103.20596
G1 X72.081 Y82.918 E103.24382
G1 X71.763 Y82.675 E103.28164
G1 X71.396 Y82.524 E103.31915
G1 X71 Y82.47 E103.35691
G1 X70.605 Y82.524 E103.39459
G1 X70.235 Y82.675 E103.43235
G1 X69.918 Y82.92 E103.47021
G1 X69.676 Y83.235 E103.50775
G1 X69.524 Y83.605 E103.54555
G1 X69.47 Y84 E103.58323
G1 X69.524 Y84.398 E103.62118
G1 X69.676 Y84.763 E103.65855
G1 X69.917 Y85.081 E103.69625
G1 X70.235 Y85.326 E103.73419
G1 X70.606 Y85.478 E103.77208
G1 X71 Y85.53 E103.80963
G0 F4320 X71 Y85.202
;TYPE:WALL-OUTER
G1 F1800 X71.311 Y85.161 E103.83927
G1 X71.6 Y85.042 E103.86881
G1 X71.851 Y84.851 E103.89862
G1 X72.042 Y84.6 E103.92842
G1 X72.161 Y84.311 E103.95796
G1 X72.202 Y84 E103.9876
G1 X72.161 Y83.69 E104.01715
G1 X72.042 Y83.399 E104.04686
G1 X71.85 Y83.15 E104.07657
G1 X71.6 Y82.959 E104.10631
G1 X71.311 Y82.84 E104.13584
G1 X71 Y82.798 E104.1655
G1 X70.69 Y82.84 E104.19506
G1 X70.399 Y82.959 E104.22477
G1 X70.15 Y83.151 E104.25448
G1 X69.96 Y83.399 E104.28401
G1 X69.84 Y83.69 E104.31375
G1 X69.798 Y84 E104.34331
G1 X69.84 Y84.312 E104.37306
G1 X69.96 Y84.6 E104.40255
G1 X70.15 Y84.85 E104.43222
G1 X70.399 Y85.042 E104.46194
G1 X70.69 Y85.161 E104.49165
G1 X71 Y85.202 E104.5212
G0 F4320 X71.198 Y85.176
G0 X71.253 Y85.598
G0 X70.596 Y85.516
G0 X70.216 Y85.36
G0 X69.889 Y85.109
G0 X69.642 Y84.782
G0 X67.095 Y80.095
G0 X66.7 Y79.7
G1 F1800 X156.3 Y79.7 E112.9884
G1 X156.3 Y143.3 E118.9986
G1 X66.7 Y143.3 E127.4658
G1 X66.7 Y79.7 E133.476
G0 F4320 X66.9 Y79.7
G0 X67.095 Y80.095
G0 X71.055 Y137.377
G0 X71 Y137.798
G1 F1800 X70.69 Y137.839 E133.50555
G1 X70.399 Y137.958 E133.53526
G1 X70.15 Y138.15 E133.56497
G1 X69.96 Y138.4 E133.59464
G1 X69.84 Y138.688 E133.62413
G1 X69.798 Y139 E133.65388
G1 X69.84 Y139.31 E133.68344
G1 X69.96 Y139.601 E133.71319
G1 X70.15 Y139.849 E133.74271
G1 X70.399 Y140.041 E133.77242
G1 X70.69 Y140.16 E133.80213
G1 X71 Y140.202 E133.8317
G1 X71.311 Y140.16 E133.86135
G1 X71.6 Y140.041 E133.89089
G1 X71.85 Y139.85 E133.92062
G1 X72.042 Y139.601 E133.95033
G1 X72.161 Y139.31 E133.98004
G1 X72.202 Y139 E134.00959
G1 X72.161 Y138.689 E134.03923
G1 X72.042 Y138.4 E134.06877
G1 X71.851 Y138.149 E134.09858
G1 X71.6 Y137.958 E134.12838
G1 X71.311 Y137.839 E134.15792
G1 X71 Y137.798 E134.18756
G0 F4320 X70.802 Y137.824
G0 X70.747 Y137.402
G0 X133.997 Y127.36
G0 X134.39 Y127.199
G1 F1800 X134.659 Y127.851 E134.25421
G1 X135.089 Y128.41 E134.32086
G1 X135.649 Y128.84 E134.38758
G1 X136.301 Y129.109 E134.45423
G1 X137 Y129.202 E134.52087
G1 X137.699 Y129.109 E134.58751
G1 X138.351 Y128.84 E134.65416
G1 X138.91 Y128.41 E134.72081
G1 X139.34 Y127.851 E134.78745
G1 X139.609 Y127.199 E134.8541
G1 X139.702 Y126.5 E134.92074
G1 X139.609 Y125.8 E134.98747
G1 X139.34 Y125.149 E135.05404
G1 X138.91 Y124.589 E135.12076
G1 X138.351 Y124.159 E135.18741
G1 X137.699 Y123.89 E135.25406
G1 X137 Y123.798 E135.32068
G1 X136.301 Y123.89 E135.38731
G1 X135.649 Y124.159 E135.45396
G1 X135.089 Y124.589 E135.52068
G1 X134.659 Y125.149 E135.5874
G1 X134.39 Y125.8 E135.65397
G1 X134.298 Y126.5 E135.72069
G1 X134.39 Y127.199 E135.78731
G0 F4320 X134.466 Y127.383
G0 X134.073 Y127.545
G0 X134.341 Y128.034
G0 X134.829 Y128.67
G0 X135.466 Y129.158
G0 X150.568 Y138.236
G0 X150.959 Y138.4
G1 F1800 X150.839 Y138.689 E135.81688
G1 X150.798 Y139 E135.84653
G1 X150.839 Y139.31 E135.87608
G1 X150.959 Y139.601 E135.90582
G1 X151.149 Y139.85 E135.93542
G1 X151.4 Y140.041 E135.96523
G1 X151.689 Y140.16 E135.99476
G1 X152 Y140.202 E136.02442
G1 X152.31 Y140.16 E136.05398
G1 X152.601 Y140.041 E136.08369
G1 X152.85 Y139.85 E136.11335
G1 X153.033 Y139.61 E136.14187
G1 X153.154 Y139.324 E136.17121
G1 X153.199 Y139.014 E136.20082
G1 X153.156 Y138.677 E136.23292
G1 X153.033 Y138.388 E136.2626
G1 X152.839 Y138.141 E136.29228
G1 X152.587 Y137.953 E136.32199
G1 X152.297 Y137.838 E136.35147
G1 X151.987 Y137.799 E136.381
G1 X151.676 Y137.844 E136.4107
G1 X151.389 Y137.966 E136.44017
G1 X151.149 Y138.149 E136.46869
G1 X150.959 Y138.4 E136.49844
G0 F4320 X150.883 Y138.585
G0 X150.491 Y138.421
G0 X137.86 Y99.503
G0 X137.699 Y99.11
G1 F1800 X138.351 Y98.841 E136.56509
G1 X138.91 Y98.411 E136.63173
G1 X139.34 Y97.851 E136.69846
G1 X139.609 Y97.2 E136.76502
G1 X139.702 Y96.5 E136.83175
G1 X139.609 Y95.801 E136.89839
G1 X139.34 Y95.149 E136.96504
G1 X138.91 Y94.59 E137.03169
G1 X138.351 Y94.16 E137.09833
G1 X137.699 Y93.891 E137.16499
G1 X137 Y93.798 E137.23162
G1 X136.301 Y93.891 E137.29826
G1 X135.649 Y94.16 E137.36491
G1 X135.089 Y94.59 E137.43163
G1 X134.659 Y95.149 E137.49828
G1 X134.39 Y95.801 E137.56493
G1 X134.298 Y96.5 E137.63156
G1 X134.39 Y97.2 E137.69828
G1 X134.659 Y97.851 E137.76484
G1 X135.089 Y98.411 E137.83156
G1 X135.649 Y98.841 E137.89828
G1 X136.301 Y99.11 E137.96494
G1 X137 Y99.202 E138.03156
G1 X137.699 Y99.11 E138.09819
G0 F4320 X137.883 Y99.034
G0 X138.045 Y99.427
G0 X138.534 Y99.159
G0 X139.17 Y98.671
G0 X150.811 Y85.106
G0 X151.149 Y84.85
G1 F1800 X151.4 Y85.042 E138.12805
G1 X151.689 Y85.161 E138.15758
G1 X152 Y85.202 E138.18723
G1 X152.31 Y85.161 E138.21678
G1 X152.601 Y85.042 E138.24649
G1 X152.85 Y84.85 E138.2762
G1 X153.033 Y84.61 E138.30472
